polaris-icons/icons/new-icons/ChecklistAlternateMajor.svg

<svg width="20" height="20" viewBox="0 0 20 20" fill="none" xmlns="http://www.w3.org/2000/svg">
<path d="M8.75 10.25C8.75 10.8023 8.30228 11.25 7.75 11.25C7.19772 11.25 6.75 10.8023 6.75 10.25C6.75 9.69772 7.19772 9.25 7.75 9.25C8.30228 9.25 8.75 9.69772 8.75 10.25Z" fill="#4A4A4A"/>
<path d="M7.75 14.25C8.30228 14.25 8.75 13.8023 8.75 13.25C8.75 12.6977 8.30228 12.25 7.75 12.25C7.19772 12.25 6.75 12.6977 6.75 13.25C6.75 13.8023 7.19772 14.25 7.75 14.25Z" fill="#4A4A4A"/>
<path d="M9.75 10.25C9.75 9.83579 10.0858 9.5 10.5 9.5H12.5C12.9142 9.5 13.25 9.83579 13.25 10.25C13.25 10.6642 12.9142 11 12.5 11H10.5C10.0858 11 9.75 10.6642 9.75 10.25Z" fill="#4A4A4A"/>
<path d="M10.5 12.5C10.0858 12.5 9.75 12.8358 9.75 13.25C9.75 13.6642 10.0858 14 10.5 14H12.5C12.9142 14 13.25 13.6642 13.25 13.25C13.25 12.8358 12.9142 12.5 12.5 12.5H10.5Z" fill="#4A4A4A"/>
<path fill-rule="evenodd" clip-rule="evenodd" d="M6.51547 4.75C6.6385 3.76342 7.4801 3 8.5 3H11.5C12.5199 3 13.3616 3.76347 13.4845 4.75009L13.75 4.75C14.9926 4.75 16 5.75736 16 7V14.75C16 15.9926 14.9926 17 13.75 17H6.25C5.00736 17 4 15.9926 4 14.75V7C4 5.75736 5.00736 4.75 6.25 4.75H6.51547ZM8.5 4.5H11.5C11.7761 4.5 12 4.72386 12 5V6C12 6.27614 11.7761 6.5 11.5 6.5H8.5C8.22386 6.5 8 6.27614 8 6V5C8 4.72386 8.22386 4.5 8.5 4.5ZM6.25 6.25H6.51547C6.6385 7.23658 7.4801 8 8.5 8H11.5C12.5199 8 13.3615 7.23658 13.4845 6.25H13.75C14.1642 6.25 14.5 6.58579 14.5 7V14.75C14.5 15.1642 14.1642 15.5 13.75 15.5H6.25C5.83579 15.5 5.5 15.1642 5.5 14.75V7C5.5 6.58579 5.83579 6.25 6.25 6.25Z" fill="#4A4A4A"/>
</svg>

<svg viewBox="0 0 20 20" xmlns="http://www.w3.org/2000/svg"><path d="M8.75 10.25a1 1 0 1 1-2 0 1 1 0 0 1 2 0Z" fill="#5C5F62"/><path d="M7.75 14.25a1 1 0 1 0 0-2 1 1 0 0 0 0 2Z" fill="#5C5F62"/><path d="M9.75 10.25a.75.75 0 0 1 .75-.75h2a.75.75 0 0 1 0 1.5h-2a.75.75 0 0 1-.75-.75Z" fill="#5C5F62"/><path d="M10.5 12.5a.75.75 0 0 0 0 1.5h2a.75.75 0 0 0 0-1.5h-2Z" fill="#5C5F62"/><path fill-rule="evenodd" d="M6.515 4.75a2 2 0 0 1 1.985-1.75h3a2 2 0 0 1 1.985 1.75h.265a2.25 2.25 0 0 1 2.25 2.25v7.75a2.25 2.25 0 0 1-2.25 2.25h-7.5a2.25 2.25 0 0 1-2.25-2.25v-7.75a2.25 2.25 0 0 1 2.25-2.25h.265Zm1.985-.25h3a.5.5 0 0 1 .5.5v1a.5.5 0 0 1-.5.5h-3a.5.5 0 0 1-.5-.5v-1a.5.5 0 0 1 .5-.5Zm-2.25 1.75h.265a2 2 0 0 0 1.985 1.75h3a2 2 0 0 0 1.985-1.75h.265a.75.75 0 0 1 .75.75v7.75a.75.75 0 0 1-.75.75h-7.5a.75.75 0 0 1-.75-.75v-7.75a.75.75 0 0 1 .75-.75Z" fill="#5C5F62"/></svg>
